X:1
T:Title
%%score { 1 | ( 2 3 ) }
L:1/8
M:6/8
K:Eb
V:1 treble nm="Grand Piano"
V:2 bass 
V:3 bass 
V:1
 z3 z2[Q:1/4=90] G | G2 G G_G=G | [GB]3 G2 E | [DF][DF][DF] [EG]2 [FA] | G3- G2 G | G2 G G_G=G | %6
 [GB]3 G2 G | FBB c2 d |[M:5/8] [DB]-[DB]- [DB]3 |[M:1/8] [DA] |[M:3/4] [B,EG]2 [EG] [B,EG]2 [GB] | %11
 [DFB]2 F [B,DF]2 [FA] | [DFA]2 [FA] [DFA]2 [Ac] | [EGc]2 [GB] [DFB]2 [AB] | %14
 [Ge]2 [Ge] [Ge]2 [Ge] | e2 c c2 c | c2 F =A2 c | [Dc]3 [DB]2 [B,DA] | [B,EG]2 [EG] [B,EG]2 [GB] | %19
 [DFB]2 F [B,DF]2 [FA] | [DFA]2 [FA] [DFA]2 [Ac] | [EGc]2 [GB] [DFB]2 [AB] | [Ge]2 [Ge] d2 G | %23
[M:7/8] c2 c e3 c |[M:3/4] B2 GE [EF][EG] |[M:5/8] [DF]3 [B,E]2 |] %26
V:2
 z3 z2 [E,B,E] | [E,B,E]2 [E,B,E] [E,B,E][E,=A,E][E,B,E] | [E,E]3 [E,B,E]2 [E,G,] | %3
 [B,,B,][B,,B,][B,,B,] [B,,B,]2 [B,,B,] | [E,B,E]3- [E,B,E]2 [E,B,E] | %5
 [E,B,E]2 [E,B,E] [E,B,E][E,=A,E][E,B,E] | [E,E]3 [E,B,E]2 [E,B,_D] | %7
 [F,B,D][F,B,D][F,B,D] [F,G,E]2 [F,=A,E] |[M:5/8] [B,,B,]-[B,,B,]- [B,,B,]3 |[M:1/8] [B,,B,] | %10
[M:3/4] z2 .B,2 z E | z2 .D2 z D | z2 .D2 z D | z2 .E2 z D | [E,B,]2 [E,B,] [E,_D]2 [E,D] | %15
 [A,CA]2 [A,EA] [A,EA]2[K:bass] [A,E] | [F,=A,E]2 [F,A,E] [F,CE]2 [F,A,E] | [B,,A,]3 [B,,A,]2 B,, | %18
 z2 .B,2 z E | z2 .D2 z D | z2 .D2 z D | z2 .E2 z D | [C,C]2 [C,C][K:treble] [G,=B,F]2 [G,B,F] | %23
[M:7/8] [A,CE]2 [A,CE] [A,CA]3 [A,EA] |[M:3/4] [B,EG]2[K:bass] [B,E][B,,G,] [B,,A,][B,,B,] | %25
[M:5/8] [B,,A,]3 [E,G,]2 |] %26
V:3
 x6 | x6 | x6 | x6 | x6 | x6 | x6 | x6 |[M:5/8] x5 |[M:1/8] x |[M:3/4] E,3 G,3 | B,3 B,,3 | %12
 D,3 F,3 | B,3 B,,3 | x6 | x5[K:bass] x | x6 | x6 | E,3 G,3 | B,3 B,,3 | D,3 F,3 | B,3 B,,3 | %22
 x3[K:treble] x3 |[M:7/8] x7 |[M:3/4] x2[K:bass] x4 |[M:5/8] x5 |] %26

